teeny/solid/chrome.svg

<svg width="15" height="15" viewBox="0 0 15 15" fill="none" xmlns="http://www.w3.org/2000/svg">
<path d="M2.50278 1.90694C3.82927 0.720967 5.58034 0 7.5 0C10.3784 0 12.8778 1.62097 14.1351 4H7.5C6.0459 4 4.79892 4.88673 4.27029 6.14895L2.50278 1.90694Z" fill="black"/>
<path d="M1.74548 2.68942C0.655856 3.99152 0 5.66907 0 7.5C0 10.8241 2.16179 13.6427 5.15637 14.6267L7.96726 10.9691C7.8144 10.9895 7.65843 11 7.5 11C5.83646 11 4.44398 9.83942 4.08809 8.28377C4.06875 8.25563 4.052 8.22508 4.03835 8.1923L1.74548 2.68942Z" fill="black"/>
<path d="M6.2149 14.8904C6.63245 14.9624 7.06184 15 7.5 15C11.6426 15 15 11.6426 15 7.5C15 6.62148 14.849 5.77828 14.5715 4.99492C14.5482 4.99827 14.5243 5 14.5 5H9.94949C10.5978 5.63526 11 6.52066 11 7.5C11 8.42321 10.6426 9.26293 10.0585 9.88832C10.0546 9.89383 10.0506 9.89928 10.0465 9.90468L6.2149 14.8904Z" fill="black"/>
<path d="M5 7.5C5 6.11929 6.11929 5 7.5 5C8.88071 5 10 6.11929 10 7.5C10 8.88071 8.88071 10 7.5 10C6.11929 10 5 8.88071 5 7.5Z" fill="black"/>
</svg>

<svg viewBox="0 0 15 15" xmlns="http://www.w3.org/2000/svg"><g><path d="M2.5 1.9C3.82.71 5.57-.01 7.49-.01c2.87 0 5.37 1.62 6.63 4H7.48c-1.46 0-2.71.88-3.23 2.14L2.48 1.88Z"/><path d="M1.74 2.68C.65 3.98-.01 5.65-.01 7.49c0 3.32 2.16 6.14 5.15 7.12l2.81-3.66c-.16.02-.31.03-.47.03 -1.67 0-3.06-1.17-3.42-2.72 -.02-.03-.04-.06-.05-.1l-2.3-5.51Z"/><path d="M6.21 14.89c.41.07.84.1 1.28.1 4.14 0 7.5-3.36 7.5-7.5 0-.88-.16-1.73-.43-2.51 -.03 0-.05 0-.08 0H9.92c.64.63 1.05 1.52 1.05 2.5 0 .92-.36 1.76-.95 2.38 -.01 0-.01.01-.02.01l-3.84 4.98Z"/><path d="M5 7.5C5 6.11 6.11 5 7.5 5 8.88 5 10 6.11 10 7.5 10 8.88 8.88 10 7.5 10 6.11 10 5 8.88 5 7.5Z"/></g></svg>
